src/pos-icons/code-tags-check.svg

<svg height="24" viewBox="0 0 24 24" width="24" xmlns="http://www.w3.org/2000/svg"><path d="m6.59 3.41-4.59 4.59 4.59 4.6 1.41-1.42-3.18-3.18 3.18-3.18zm5.82 0-1.41 1.41 3.18 3.18-3.18 3.18 1.41 1.42 4.59-4.6zm9.18 8.18-8.09 8.09-3.67-3.68-1.41 1.41 5.08 5.09 9.5-9.5z"/></svg>

<?xml version="1.0" encoding="UTF-8"?><!DOCTYPE svg PUBLIC "-//W3C//DTD SVG 1.1//EN" "http://www.w3.org/Graphics/SVG/1.1/DTD/svg11.dtd"><svg xmlns="http://www.w3.org/2000/svg" xmlns:xlink="http://www.w3.org/1999/xlink" version="1.1" id="mdi-code-tags-check" width="24" height="24" viewBox="0 0 24 24"><path d="M6.59,3.41L2,8L6.59,12.6L8,11.18L4.82,8L8,4.82L6.59,3.41M12.41,3.41L11,4.82L14.18,8L11,11.18L12.41,12.6L17,8L12.41,3.41M21.59,11.59L13.5,19.68L9.83,16L8.42,17.41L13.5,22.5L23,13L21.59,11.59Z" /></svg>
